X:719
T:Reel 719
M:4/4
K:Amin
L:1/8
ABcB GEDE|GEDF EA,A,2|GBBA G2EF|GEDF EA,A,2:|BGdG eGdG|BGdG BedB|BGdG eGBG|BAGA BAA2|BGdG eGBG|BGdG eG (3GGA |Beed Bee2|BedG BAA2|BGdG eGBG|BGdG Be (3ede |Beec dBAG|BEDG B,A,A,2|
